; generated by PrusaSlicer 2.6.1+win64 on 2024-01-30 at 11:41:30 UTC


;
;
; 

; external perimeters extrusion width = 0.65mm
; perimeters extrusion width = 0.65mm
; infill extrusion width = 0.65mm
; solid infill extrusion width = 0.65mm
; top infill extrusion width = 0.60mm
; first layer extrusion width = 0.65mm

M73 P0 R177
M73 C131
M73 Q0 S179
M73 D132
M201 X1000 Y1000 Z200 E5000 ; sets maximum accelerations, mm/sec^2
M203 X200 Y200 Z12 E120 ; sets maximum feedrates, mm / sec
M204 S1250 T1250 ; sets acceleration (S) and retract acceleration (R), mm/sec^2
M205 X8.00 Y8.00 Z0.40 E4.50 ; sets the jerk limits, mm/sec
M205 S0 T0 ; sets the minimum extruding and travel feed rate, mm/sec
;TYPE:Custom
M862.3 P "MK3S" ; printer model check
M862.1 P0.6 ; nozzle diameter check
M115 U3.12.2 ; tell printer latest fw version
G90 ; use absolute coordinates
M83 ; extruder relative mode
M104 S215 ; set extruder temp
M140 S60 ; set bed temp
M190 S60 ; wait for bed temp
M109 S215 ; wait for extruder temp
G28 W ; home all without mesh bed level
G80 ; mesh bed leveling

G1 Z0.2 F720
G1 Y-3 F1000 ; go outside print area
G92 E0
G1 X60 E9 F1000 ; intro line
G1 X100 E12.5 F1000 ; intro line

G92 E0
M221 S95
G21 ; set units to millimeters
G90 ; use absolute coordinates
M83 ; use relative distances for extrusion
M900 K0.04 ; Filament gcode LA 1.5
M900 K18 ; Filament gcode LA 1.0
M107
;LAYER_CHANGE
;Z:0.2
;HEIGHT:0.2
;BEFORE_LAYER_CHANGE
G92 E0.0
;0.2


G1 E-.8 F2100
G1 Z.4 F720
;AFTER_LAYER_CHANGE
;0.2
G1 X41.047 Y22.958 F10800
G1 Z.2 F720
G1 E.8 F1500
M204 S800
;TYPE:Skirt/Brim
;WIDTH:0.65
G1 F1200
G1 X42.096 Y22.001 E.07168
G1 X47.096 Y19.501 E.28219
G1 X48.262 Y19.226 E.06047
G1 X204.062 Y19.226 E7.86461
G1 X205.228 Y19.501 E.06047
G1 X210.228 Y22.001 E.28219
G1 X211.283 Y22.967 E.07221
G1 X211.669 Y24.333 E.07165
G1 X211.669 Y190.133 E8.3694
G1 X211.277 Y191.509 E.07222
M73 D131
G1 X210.228 Y192.465 E.07164
G1 X205.228 Y194.965 E.28219
G1 X204.062 Y195.24 E.06047
G1 X48.262 Y195.24 E7.86461
G1 X47.096 Y194.965 E.06047
G1 X42.096 Y192.465 E.28219
G1 X41.041 Y191.499 E.07221
G1 X40.655 Y190.133 E.07165
G1 X40.655 Y24.333 E8.3694
G1 X41.023 Y23.044 E.06767
M204 S1000
; printing object Diffuser id:0 copy 0
;WIPE_START
G1 F8640
G1 X42.096 Y22.001 E-.34552
G1 X43.856 Y21.121 E-.45448
;WIPE_END
G1 Z.6 F720
G1 X194.389 Y189.021 F10800
G1 Z.2 F720
G1 E.8 F1500
M204 S800
;TYPE:Perimeter
;WIDTH:0.649999
G1 F1200
G1 X194.283 Y189.001 E.00545
G1 X58.041 Y189.001 E6.87734
G1 X57.717 Y189.061 E.01663
M73 Q0 S178
G1 X57.429 Y189.237 E.01704
G1 X57.224 Y189.509 E.01719
G1 X57.13 Y189.912 E.02089
G1 X57.13 Y191.501 E.08021
G1 X49.394 Y191.501 E.3905
G1 X49.394 Y189.912 E.08021
G1 X49.3 Y189.509 E.02089
G1 X49.138 Y189.279 E.0142
G1 X48.849 Y189.078 E.01777
G1 X48.483 Y189.001 E.01888
G1 X44.394 Y189.001 E.20641
G1 X44.394 Y25.465 E8.2551
G1 X48.483 Y25.465 E.20641
M73 C130
G1 X48.849 Y25.389 E.01887
G1 X49.095 Y25.229 E.01481
G1 X49.3 Y24.957 E.01719
G1 X49.394 Y24.555 E.02084
G1 X49.394 Y22.965 E.08026
G1 X57.13 Y22.965 E.3905
G1 X57.13 Y24.555 E.08026
M73 P0 R176
G1 X57.224 Y24.957 E.02084
G1 X57.429 Y25.229 E.01719
G1 X57.717 Y25.406 E.01706
G1 X58.041 Y25.465 E.01662
G1 X194.283 Y25.465 E6.87734
G1 X194.607 Y25.406 E.01662
G1 X194.895 Y25.229 E.01706
G1 X195.1 Y24.957 E.01719
G1 X195.194 Y24.555 E.02084
G1 X195.194 Y22.965 E.08026
G1 X202.93 Y22.965 E.3905
G1 X202.93 Y24.555 E.08026
G1 X203.024 Y24.957 E.02084
G1 X203.186 Y25.188 E.01424
G1 X203.475 Y25.389 E.01777
G1 X203.841 Y25.465 E.01887
G1 X207.93 Y25.465 E.20641
G1 X207.93 Y189.001 E8.2551
G1 X203.841 Y189.001 E.20641
G1 X203.475 Y189.078 E.01888
G1 X203.229 Y189.237 E.01479
G1 X203.024 Y189.509 E.01719
G1 X202.93 Y189.912 E.02089
G1 X202.93 Y191.501 E.08021
G1 X195.194 Y191.501 E.3905
G1 X195.194 Y189.912 E.08021
G1 X195.1 Y189.509 E.02089
G1 X194.895 Y189.237 E.01719
G1 X194.607 Y189.061 E.01704
G1 X194.478 Y189.037 E.00662
M204 S1000
G1 X194.283 Y189.608 F10800
M204 S800
;TYPE:External perimeter
G1 F1200
G1 X58.041 Y189.608 E6.87734
G1 X57.971 Y189.616 E.00356
M73 D130
G1 X57.807 Y189.718 E.00975
G1 X57.737 Y189.912 E.01041
G1 X57.737 Y192.108 E.11085
G1 X48.787 Y192.108 E.45179
G1 X48.787 Y189.912 E.11085
G1 X48.777 Y189.833 E.00402
G1 X48.674 Y189.675 E.00952
G1 X48.483 Y189.608 E.01022
G1 X43.787 Y189.608 E.23705
G1 X43.787 Y24.858 E8.31639
G1 X48.483 Y24.858 E.23705
G1 X48.573 Y24.845 E.00459
G1 X48.717 Y24.749 E.00874
G1 X48.787 Y24.555 E.01041
G1 X48.787 Y22.358 E.1109
G1 X57.737 Y22.358 E.45179
G1 X57.737 Y24.555 E.1109
G1 X57.747 Y24.633 E.00397
G1 X57.85 Y24.791 E.00952
G1 X58.041 Y24.858 E.01022
G1 X194.283 Y24.858 E6.87734
G1 X194.353 Y24.85 E.00356
G1 X194.517 Y24.749 E.00972
G1 X194.587 Y24.555 E.01041
G1 X194.587 Y22.358 E.1109
G1 X203.537 Y22.358 E.45179
G1 X203.537 Y24.555 E.1109
G1 X203.547 Y24.633 E.00397
G1 X203.65 Y24.791 E.00952
G1 X203.841 Y24.858 E.01022
G1 X208.537 Y24.858 E.23705
G1 X208.537 Y189.608 E8.31639
G1 X203.841 Y189.608 E.23705
M73 P1 R176
M73 Q1 S177
G1 X203.751 Y189.622 E.0046
G1 X203.607 Y189.718 E.00874
G1 X203.537 Y189.912 E.01041
G1 X203.537 Y192.108 E.11085
G1 X194.587 Y192.108 E.45179
G1 X194.587 Y189.912 E.11085
G1 X194.577 Y189.833 E.00402
G1 X194.474 Y189.675 E.00952
G1 X194.368 Y189.638 E.00567
M204 S1000
G1 X194.103 Y189.036 F10800
;WIPE_START
G1 F8640
G1 X190.903 Y189.637 E-.8
;WIPE_END
G1 Z.6 F720
G1 X56.252 Y23.147 F10800
G1 Z.2 F720
G1 E.8 F1500
M204 S800
;TYPE:Solid infill
;WIDTH:0.650407
G1 F1200
G1 X56.948 Y23.843 E.04972
M204 S1000
;WIPE_START
G1 F8640
G1 X56.252 Y23.147 E-.22728
;WIPE_END
G1 E-.57272 F2100
G1 Z.6 F720
G1 X206.52 Y25.647 F10800
G1 Z.2 F720
G1 E.8 F1500
M204 S800
G1 F1200
G1 X207.475 Y26.602 E.06822
G1 X207.475 Y27.461 E.04339
G1 X205.934 Y25.921 E.11005
G1 X205.075 Y25.921 E.04339
G1 X207.475 Y28.321 E.17145
G1 X207.475 Y29.18 E.04339
G1 X203.942 Y25.647 E.25238
M204 S1000
;WIPE_START
G1 F8640
G1 X206.392 Y28.097 E-.8
;WIPE_END
G1 Z.6 F720
G1 X202.748 Y24.453 F10800
G1 Z.2 F720
M73 C129
G1 E.8 F1500
M204 S800
G1 F1200
G1 X201.716 Y23.421 E.07372
G1 X200.856 Y23.421 E.04344
G1 X207.475 Y30.039 E.4728
G1 X207.475 Y30.898 E.04339
G1 X199.997 Y23.421 E.53416
G1 X199.138 Y23.421 E.04339
G1 X207.475 Y31.757 E.59552
G1 X207.475 Y32.616 E.04339
G1 X198.279 Y23.421 E.65689
G1 X197.42 Y23.421 E.04339
G1 X207.475 Y33.475 E.71825
G1 X207.475 Y34.334 E.04339
G1 X196.561 Y23.421 E.77961
G1 X195.702 Y23.421 E.04339
G1 X207.475 Y35.193 E.84098
G1 X207.475 Y36.053 E.04344
M73 P1 R175
G1 X195.649 Y24.227 E.8448
G1 X195.649 Y24.565 E.01707
G1 X195.604 Y24.907 E.01742
G1 X195.567 Y25.004 E.00524
G1 X207.475 Y36.912 E.85066
G1 X207.475 Y37.771 E.04339
G1 X195.234 Y25.531 E.87441
G1 X194.993 Y25.724 E.0156
G1 X194.699 Y25.855 E.01626
G1 X207.475 Y38.63 E.91263
G1 X207.475 Y39.489 E.04339
G1 X193.906 Y25.921 E.96928
G1 X193.047 Y25.921 E.04339
G1 X207.475 Y40.348 E1.03064
G1 X207.475 Y41.207 E.04339
G1 X192.188 Y25.921 E1.092
G1 X191.329 Y25.921 E.04339
G1 X207.475 Y42.066 E1.15337
G1 X207.475 Y42.925 E.04339
G1 X190.47 Y25.921 E1.21473
G1 X189.611 Y25.921 E.04339
G1 X207.475 Y43.785 E1.27613
G1 X207.475 Y44.644 E.04339
G1 X188.751 Y25.921 E1.33753
G1 X187.892 Y25.921 E.04339
G1 X207.475 Y45.503 E1.39889
G1 X207.475 Y46.362 E.04339
G1 X187.033 Y25.921 E1.46026
G1 X186.174 Y25.921 E.04339
G1 X207.475 Y47.221 E1.52162
G1 X207.475 Y48.08 E.04339
G1 X185.315 Y25.921 E1.58298
G1 X184.456 Y25.921 E.04339
G1 X207.475 Y48.939 E1.64435
G1 X207.475 Y49.798 E.04339
M73 D129
G1 X183.597 Y25.921 E1.70571
G1 X182.738 Y25.921 E.04339
G1 X207.475 Y50.658 E1.76711
G1 X207.475 Y51.517 E.04339
G1 X181.879 Y25.921 E1.82847
G1 X181.019 Y25.921 E.04344
G1 X207.475 Y52.376 E1.88987
G1 X207.475 Y53.235 E.04339
G1 X180.16 Y25.921 E1.95123
G1 X179.301 Y25.921 E.04339
G1 X207.475 Y54.094 E2.0126
G1 X207.475 Y54.953 E.04339
G1 X178.442 Y25.921 E2.07396
G1 X177.583 Y25.921 E.04339
G1 X207.475 Y55.812 E2.13532
G1 X207.475 Y56.671 E.04339
G1 X176.724 Y25.921 E2.19669
G1 X175.865 Y25.921 E.04339
G1 X207.475 Y57.53 E2.25805
G1 X207.475 Y58.39 E.04344
G1 X175.006 Y25.921 E2.31945
G1 X174.147 Y25.921 E.04339
G1 X207.475 Y59.249 E2.38081
G1 X207.475 Y60.108 E.04339
G1 X173.287 Y25.921 E2.44221
G1 X172.428 Y25.921 E.04339
G1 X207.475 Y60.967 E2.50358
G1 X207.475 Y61.826 E.04339
M73 Q1 S176
G1 X171.569 Y25.921 E2.56494
G1 X170.71 Y25.921 E.04339
G1 X207.475 Y62.685 E2.6263
G1 X207.475 Y63.544 E.04339
M73 C128
G1 X169.851 Y25.921 E2.68767
G1 X168.992 Y25.921 E.04339
G1 X207.475 Y64.403 E2.74903
G1 X207.475 Y65.263 E.04344
M73 P1 R174
G1 X168.133 Y25.921 E2.81043
G1 X167.274 Y25.921 E.04339
G1 X207.475 Y66.122 E2.87179
G1 X207.475 Y66.981 E.04339
G1 X166.414 Y25.921 E2.93319
G1 X165.555 Y25.921 E.04339
G1 X207.475 Y67.84 E2.99455
G1 X207.475 Y68.699 E.04339
G1 X164.696 Y25.921 E3.05592
G1 X163.837 Y25.921 E.04339
G1 X207.475 Y69.558 E3.11728
G1 X207.475 Y70.417 E.04339
G1 X162.978 Y25.921 E3.17864
G1 X162.119 Y25.921 E.04339
M73 D128
G1 X207.475 Y71.276 E3.24001
G1 X207.475 Y72.135 E.04339
G1 X161.26 Y25.921 E3.30137
G1 X160.401 Y25.921 E.04339
G1 X207.475 Y72.995 E3.36277
G1 X207.475 Y73.854 E.04339
G1 X159.542 Y25.921 E3.42413
G1 X158.682 Y25.921 E.04344
M73 P2 R174
M73 Q2 S176
G1 X207.475 Y74.713 E3.48553
G1 X207.475 Y75.572 E.04339
G1 X157.823 Y25.921 E3.5469
G1 X156.964 Y25.921 E.04339
G1 X207.475 Y76.431 E3.60826
G1 X207.475 Y77.29 E.04339
G1 X156.105 Y25.921 E3.66962
G1 X155.246 Y25.921 E.04339
M73 Q2 S175
G1 X207.475 Y78.149 E3.73099
G1 X207.475 Y79.008 E.04339
G1 X154.387 Y25.921 E3.79235
G1 X153.528 Y25.921 E.04339
M73 C127
G1 X207.475 Y79.867 E3.85371
G1 X207.475 Y80.727 E.04344
M73 P2 R173
G1 X152.669 Y25.921 E3.91511
G1 X151.809 Y25.921 E.04344
G1 X207.475 Y81.586 E3.97651
G1 X207.475 Y82.445 E.04339
G1 X150.95 Y25.921 E4.03787
G1 X150.091 Y25.921 E.04339
G1 X207.475 Y83.304 E4.09924
G1 X207.475 Y84.163 E.04339
G1 X149.232 Y25.921 E4.1606
G1 X148.373 Y25.921 E.04339
M73 D127
G1 X207.475 Y85.022 E4.22196
G1 X207.475 Y85.881 E.04339
G1 X147.514 Y25.921 E4.28333
G1 X146.655 Y25.921 E.04339
G1 X207.475 Y86.74 E4.34469
G1 X207.475 Y87.6 E.04344
G1 X145.796 Y25.921 E4.40609
G1 X144.937 Y25.921 E.04339
G1 X207.475 Y88.459 E4.46745
G1 X207.475 Y89.318 E.04339
G1 X144.077 Y25.921 E4.52885
G1 X143.218 Y25.921 E.04339
M73 Q2 S174
G1 X207.475 Y90.177 E4.59022
G1 X207.475 Y91.036 E.04339
G1 X142.359 Y25.921 E4.65158
G1 X141.5 Y25.921 E.04339
M73 C126
G1 X207.475 Y91.895 E4.71294
G1 X207.475 Y92.754 E.04339
M73 P2 R172
G1 X140.641 Y25.921 E4.77431
G1 X139.782 Y25.921 E.04339
G1 X207.475 Y93.613 E4.83567
G1 X207.475 Y94.472 E.04339
G1 X138.923 Y25.921 E4.89703
G1 X138.064 Y25.921 E.04339
G1 X207.475 Y95.332 E4.95843
G1 X207.475 Y96.191 E.04339
M73 P3 R172
M73 D126
G1 X137.205 Y25.921 E5.01979
G1 X136.345 Y25.921 E.04344
M73 Q3 S174
G1 X207.475 Y97.05 E5.08119
G1 X207.475 Y97.909 E.04339
G1 X135.486 Y25.921 E5.14256
G1 X134.627 Y25.921 E.04339
G1 X207.475 Y98.768 E5.20392
G1 X207.475 Y99.627 E.04339
G1 X133.768 Y25.921 E5.26528
G1 X132.909 Y25.921 E.04339
G1 X207.475 Y100.486 E5.32665
G1 X207.475 Y101.345 E.04339
M73 Q3 S173
G1 X132.05 Y25.921 E5.38801
G1 X131.191 Y25.921 E.04339
M73 C125
G1 X207.475 Y102.205 E5.44941
G1 X207.475 Y103.064 E.04339
M73 P3 R171
G1 X130.332 Y25.921 E5.51077
G1 X129.472 Y25.921 E.04344
G1 X207.475 Y103.923 E5.57217
G1 X207.475 Y104.782 E.04339
G1 X128.613 Y25.921 E5.63354
G1 X127.754 Y25.921 E.04339
M73 D125
G1 X207.475 Y105.641 E5.6949
G1 X207.475 Y106.5 E.04339
G1 X126.895 Y25.921 E5.75626
G1 X126.036 Y25.921 E.04339
G1 X207.475 Y107.359 E5.81763
G1 X207.475 Y108.218 E.04339
G1 X125.177 Y25.921 E5.87899
G1 X124.318 Y25.921 E.04339
G1 X207.475 Y109.077 E5.94035
G1 X207.475 Y109.937 E.04344
M73 Q3 S172
G1 X123.459 Y25.921 E6.00175
G1 X122.6 Y25.921 E.04339
G1 X207.475 Y110.796 E6.06311
M73 C124
G1 X207.475 Y111.655 E.04339
M73 P3 R170
G1 X121.74 Y25.921 E6.12451
G1 X120.881 Y25.921 E.04339
G1 X207.475 Y112.514 E6.18588
G1 X207.475 Y113.373 E.04339
M73 P4 R170
M73 Q4 S172
G1 X120.022 Y25.921 E6.24724
G1 X119.163 Y25.921 E.04339
G1 X207.475 Y114.232 E6.3086
G1 X207.475 Y115.091 E.04339
M73 D124
G1 X118.304 Y25.921 E6.36997
G1 X117.445 Y25.921 E.04339
G1 X207.475 Y115.95 E6.43133
G1 X207.475 Y116.809 E.04339
G1 X116.586 Y25.921 E6.49269
G1 X115.727 Y25.921 E.04339
G1 X207.475 Y117.669 E6.55409
G1 X207.475 Y118.528 E.04339
M73 Q4 S171
G1 X114.867 Y25.921 E6.61549
G1 X114.008 Y25.921 E.04339
M73 C123
G1 X207.475 Y119.387 E6.67686
G1 X207.475 Y120.246 E.04339
M73 P4 R169
G1 X113.149 Y25.921 E6.73822
G1 X112.29 Y25.921 E.04339
G1 X207.475 Y121.105 E6.79958
G1 X207.475 Y121.964 E.04339
G1 X111.431 Y25.921 E6.86095
G1 X110.572 Y25.921 E.04339
M73 D123
G1 X207.475 Y122.823 E6.92231
G1 X207.475 Y123.682 E.04339
G1 X109.713 Y25.921 E6.98367
G1 X108.854 Y25.921 E.04339
G1 X207.475 Y124.542 E7.04507
G1 X207.475 Y125.401 E.04339
G1 X107.995 Y25.921 E7.10643
G1 X107.135 Y25.921 E.04344
M73 Q4 S170
G1 X207.475 Y126.26 E7.16783
G1 X207.475 Y127.119 E.04339
M73 P5 R168
M73 C122
M73 Q5 S170
G1 X106.276 Y25.921 E7.2292
G1 X105.417 Y25.921 E.04339
G1 X207.475 Y127.978 E7.29056
G1 X207.475 Y128.837 E.04339
G1 X104.558 Y25.921 E7.35192
G1 X103.699 Y25.921 E.04339
M73 D122
G1 X207.475 Y129.696 E7.41329
G1 X207.475 Y130.555 E.04339
G1 X102.84 Y25.921 E7.47465
G1 X101.981 Y25.921 E.04339
G1 X207.475 Y131.414 E7.53601
G1 X207.475 Y132.274 E.04344
G1 X101.122 Y25.921 E7.59741
G1 X100.263 Y25.921 E.04339
M73 Q5 S169
G1 X207.475 Y133.133 E7.65878
G1 X207.475 Y133.992 E.04339
M73 P5 R167
M73 C121
G1 X99.403 Y25.921 E7.72018
G1 X98.544 Y25.921 E.04339
G1 X207.475 Y134.851 E7.78154
G1 X207.475 Y135.71 E.04339
G1 X97.685 Y25.921 E7.8429
G1 X96.826 Y25.921 E.04339
M73 D121
G1 X207.475 Y136.569 E7.90427
G1 X207.475 Y137.428 E.04339
G1 X95.967 Y25.921 E7.96563
G1 X95.108 Y25.921 E.04339
G1 X207.475 Y138.287 E8.02699
G1 X207.475 Y139.147 E.04344
M73 P6 R167
M73 Q6 S169
G1 X94.249 Y25.921 E8.08839
G1 X93.39 Y25.921 E.04339
M73 C120
M73 Q6 S168
G1 X207.475 Y140.006 E8.14975
G1 X207.475 Y140.865 E.04339
M73 P6 R166
G1 X92.53 Y25.921 E8.21115
G1 X91.671 Y25.921 E.04339
G1 X207.475 Y141.724 E8.27252
G1 X207.475 Y142.583 E.04339
G1 X90.812 Y25.921 E8.33388
G1 X89.953 Y25.921 E.04339
M73 D120
G1 X207.475 Y143.442 E8.39524
G1 X207.475 Y144.301 E.04339
G1 X89.094 Y25.921 E8.45661
G1 X88.235 Y25.921 E.04339
G1 X207.475 Y145.16 E8.51797
G1 X207.475 Y146.019 E.04339
M73 Q6 S167
G1 X87.376 Y25.921 E8.57933
G1 X86.517 Y25.921 E.04339
M73 P6 R165
M73 C119
G1 X207.475 Y146.879 E8.64073
G1 X207.475 Y147.738 E.04339
G1 X85.658 Y25.921 E8.7021
G1 X84.798 Y25.921 E.04344
G1 X207.475 Y148.597 E8.7635
G1 X207.475 Y149.456 E.04339
M73 D119
G1 X83.939 Y25.921 E8.82486
G1 X83.08 Y25.921 E.04339
M73 P7 R165
M73 Q7 S167
G1 X207.475 Y150.315 E8.88622
G1 X207.475 Y151.174 E.04339
G1 X82.221 Y25.921 E8.94759
G1 X81.362 Y25.921 E.04339
M73 Q7 S166
G1 X207.475 Y152.033 E9.00895
G1 X207.475 Y152.892 E.04339
M73 P7 R164
M73 C118
G1 X80.503 Y25.921 E9.07031
G1 X79.644 Y25.921 E.04339
G1 X207.475 Y153.751 E9.13168
G1 X207.475 Y154.611 E.04344
M73 D118
G1 X78.785 Y25.921 E9.19308
G1 X77.925 Y25.921 E.04344
G1 X207.475 Y155.47 E9.25447
G1 X207.475 Y156.329 E.04339
G1 X77.066 Y25.921 E9.31584
G1 X76.207 Y25.921 E.04339
M73 Q7 S165
G1 X207.475 Y157.188 E9.3772
G1 X207.475 Y158.047 E.04339
M73 C117
G1 X75.348 Y25.921 E9.43856
G1 X74.489 Y25.921 E.04339
M73 P7 R163
G1 X207.475 Y158.906 E9.49993
G1 X207.475 Y159.765 E.04339
M73 P8 R163
G1 X73.63 Y25.921 E9.56129
G1 X72.771 Y25.921 E.04339
M73 Q8 S165
M73 D117
G1 X207.475 Y160.624 E9.62265
G1 X207.475 Y161.484 E.04344
G1 X71.912 Y25.921 E9.68405
G1 X71.053 Y25.921 E.04339
G1 X207.475 Y162.343 E9.74542
G1 X207.475 Y163.202 E.04339
M73 C116
M73 Q8 S164
G1 X70.193 Y25.921 E9.80682
G1 X69.334 Y25.921 E.04339
M73 P8 R162
G1 X207.475 Y164.061 E9.86818
G1 X207.475 Y164.92 E.04339
G1 X68.475 Y25.921 E9.92954
G1 X67.616 Y25.921 E.04339
M73 D116
G1 X207.475 Y165.779 E9.99091
G1 X207.475 Y166.638 E.04339
G1 X66.757 Y25.921 E10.05227
G1 X65.898 Y25.921 E.04339
