; generated by PrusaSlicer 2.6.1+win64 on 2024-01-30 at 11:40:54 UTC


;
;
; 

; external perimeters extrusion width = 0.65mm
; perimeters extrusion width = 0.65mm
; infill extrusion width = 0.65mm
; solid infill extrusion width = 0.65mm
; top infill extrusion width = 0.60mm
; first layer extrusion width = 0.65mm

; external perimeters extrusion width = 0.65mm
; perimeters extrusion width = 0.65mm
; infill extrusion width = 0.65mm
; solid infill extrusion width = 0.65mm
; top infill extrusion width = 0.60mm
; first layer extrusion width = 0.65mm

M73 P0 R87
M73 Q0 S89
M201 X1000 Y1000 Z200 E5000 ; sets maximum accelerations, mm/sec^2
M203 X200 Y200 Z12 E120 ; sets maximum feedrates, mm / sec
M204 S1250 T1250 ; sets acceleration (S) and retract acceleration (R), mm/sec^2
M205 X8.00 Y8.00 Z0.40 E4.50 ; sets the jerk limits, mm/sec
M205 S0 T0 ; sets the minimum extruding and travel feed rate, mm/sec
;TYPE:Custom
M862.3 P "MK3S" ; printer model check
M862.1 P0.6 ; nozzle diameter check
M115 U3.12.2 ; tell printer latest fw version
G90 ; use absolute coordinates
M83 ; extruder relative mode
M104 S215 ; set extruder temp
M140 S60 ; set bed temp
M190 S60 ; wait for bed temp
M109 S215 ; wait for extruder temp
G28 W ; home all without mesh bed level
G80 ; mesh bed leveling

G1 Z0.2 F720
G1 Y-3 F1000 ; go outside print area
G92 E0
G1 X60 E9 F1000 ; intro line
G1 X100 E12.5 F1000 ; intro line

G92 E0
M221 S95
G21 ; set units to millimeters
G90 ; use absolute coordinates
M83 ; use relative distances for extrusion
M900 K0.04 ; Filament gcode LA 1.5
M900 K18 ; Filament gcode LA 1.0
M107
;LAYER_CHANGE
;Z:0.2
;HEIGHT:0.2
;BEFORE_LAYER_CHANGE
G92 E0.0
;0.2


G1 E-.8 F2100
G1 Z.4 F720
;AFTER_LAYER_CHANGE
;0.2
G1 X40.469 Y18.355 F10800
G1 Z.2 F720
G1 E.8 F1500
M204 S800
;TYPE:Skirt/Brim
;WIDTH:0.65
G1 F1200
G1 X41.528 Y17.394 E.07219
G1 X42.684 Y17.123 E.05994
G1 X208.484 Y17.123 E8.3694
G1 X209.859 Y17.516 E.07219
M73 Q0 S88
G1 X210.82 Y18.575 E.07219
G1 X211.091 Y19.73 E.05989
G1 X211.091 Y185.53 E8.3694
G1 X210.698 Y186.906 E.07224
G1 X209.639 Y187.867 E.07219
G1 X208.484 Y188.137 E.05987
G1 X42.684 Y188.137 E8.3694
G1 X41.308 Y187.745 E.07222
G1 X40.347 Y186.686 E.07219
G1 X40.076 Y185.53 E.05994
G1 X40.076 Y19.73 E8.3694
G1 X40.444 Y18.442 E.06762
M204 S1000
; printing object Unterseite id:0 copy 0
;WIPE_START
M73 P0 R86
G1 F8640
G1 X41.528 Y17.394 E-.34815
G1 X42.684 Y17.123 E-.27416
G1 X43.454 Y17.123 E-.17769
;WIPE_END
G1 Z.6 F720
G1 X70.529 Y95.491 F10800
G1 Z.2 F720
G1 E.8 F1500
M204 S800
;TYPE:Perimeter
;WIDTH:0.649999
G1 F1200
G1 X44.423 Y95.491 E1.3178
G1 X44.423 Y68.77 E1.34884
G1 X70.529 Y68.77 E1.3178
G1 X70.652 Y68.949 E.01096
G1 X71.361 Y69.835 E.05728
G1 X72.152 Y70.647 E.05722
G1 X73.017 Y71.378 E.05717
G1 X73.904 Y71.99 E.0544
G1 X74.807 Y72.503 E.05242
G1 X75.982 Y73.021 E.06482
G1 X77.007 Y73.353 E.05439
G1 X78.12 Y73.601 E.05756
G1 X79.295 Y73.74 E.05973
G1 X80.374 Y73.765 E.05448
G1 X81.506 Y73.681 E.0573
G1 X82.622 Y73.488 E.05717
G1 X83.716 Y73.187 E.05728
G1 X84.792 Y72.772 E.05822
G1 X85.823 Y72.248 E.05838
G1 X86.747 Y71.671 E.05499
G1 X87.604 Y71.011 E.0546
G1 X88.468 Y70.2 E.05982
G1 X89.18 Y69.389 E.05448
G1 X89.843 Y68.469 E.05724
G1 X90.414 Y67.489 E.05725
G1 X90.887 Y66.459 E.05721
G1 X91.257 Y65.386 E.05729
G1 X91.52 Y64.283 E.05724
G1 X91.675 Y63.163 E.05708
G1 X91.721 Y62.087 E.05436
G1 X91.661 Y60.954 E.05727
G1 X91.49 Y59.826 E.05759
G1 X91.197 Y58.681 E.05966
G1 X90.831 Y57.665 E.05451
G1 X90.345 Y56.641 E.05722
G1 X89.762 Y55.668 E.05726
G1 X89.087 Y54.756 E.05727
G1 X88.326 Y53.915 E.05725
G1 X87.49 Y53.154 E.05707
G1 X86.628 Y52.508 E.05438
G1 X85.66 Y51.916 E.05728
G1 X84.64 Y51.422 E.05721
G1 X83.575 Y51.029 E.0573
G1 X82.478 Y50.741 E.05725
G1 X81.359 Y50.563 E.0572
G1 X80.228 Y50.493 E.0572
G1 X79.151 Y50.532 E.0544
G1 X77.968 Y50.687 E.06023
G1 X76.868 Y50.946 E.05705
G1 X75.848 Y51.291 E.05435
G1 X74.807 Y51.758 E.05759
G1 X73.903 Y52.271 E.05247
G1 X73.686 Y52.415 E.01315
G1 X72.902 Y52.973 E.04858
G1 X72.044 Y53.715 E.05726
G1 X71.264 Y54.538 E.05724
G1 X70.529 Y55.491 E.06075
G1 X44.423 Y55.491 E1.3178
G1 X44.423 Y21.47 E1.71734
G1 X206.744 Y21.47 E8.19377
G1 X206.744 Y183.791 E8.19377
M73 P1 R86
M73 Q1 S88
G1 X44.423 Y183.791 E8.19377
M73 Q1 S87
G1 X44.423 Y148.77 E1.76782
G1 X70.529 Y148.77 E1.3178
G1 X70.652 Y148.949 E.01096
G1 X71.361 Y149.835 E.05728
G1 X72.152 Y150.647 E.05722
G1 X73.017 Y151.378 E.05717
G1 X73.904 Y151.99 E.0544
G1 X74.807 Y152.503 E.05242
G1 X75.982 Y153.021 E.06482
G1 X77.007 Y153.353 E.05439
G1 X78.12 Y153.601 E.05756
G1 X79.151 Y153.729 E.05244
G1 X80.374 Y153.765 E.06176
G1 X81.506 Y153.681 E.0573
G1 X82.622 Y153.488 E.05717
G1 X83.716 Y153.187 E.05728
G1 X84.773 Y152.781 E.05716
G1 X85.739 Y152.3 E.05447
G1 X86.746 Y151.671 E.05993
G1 X87.604 Y151.011 E.05464
G1 X88.468 Y150.2 E.05982
G1 X89.18 Y149.389 E.05448
G1 X89.843 Y148.469 E.05724
G1 X90.414 Y147.489 E.05725
G1 X90.887 Y146.459 E.05721
G1 X91.257 Y145.386 E.05729
G1 X91.52 Y144.283 E.05724
G1 X91.675 Y143.163 E.05708
G1 X91.721 Y142.087 E.05436
G1 X91.661 Y140.954 E.05727
G1 X91.517 Y139.955 E.05095
G1 X91.197 Y138.681 E.06631
G1 X90.831 Y137.665 E.05451
G1 X90.345 Y136.64 E.05726
G1 X89.762 Y135.668 E.05721
G1 X89.087 Y134.756 E.05727
G1 X88.326 Y133.915 E.05725
G1 X87.49 Y133.154 E.05707
G1 X86.589 Y132.484 E.05668
G1 X85.593 Y131.883 E.05872
G1 X84.64 Y131.422 E.05344
G1 X83.575 Y131.029 E.0573
G1 X82.478 Y130.741 E.05725
G1 X81.359 Y130.563 E.0572
G1 X80.228 Y130.493 E.0572
G1 X79.151 Y130.532 E.0544
G1 X77.968 Y130.687 E.06023
G1 X76.868 Y130.946 E.05705
G1 X75.848 Y131.291 E.05435
G1 X74.807 Y131.758 E.05759
G1 X73.904 Y132.271 E.05242
G1 X72.902 Y132.973 E.06176
G1 X72.044 Y133.715 E.05726
G1 X71.264 Y134.538 E.05724
G1 X70.529 Y135.491 E.06075
G1 X44.423 Y135.491 E1.3178
G1 X44.423 Y108.77 E1.34884
G1 X70.529 Y108.77 E1.3178
G1 X70.652 Y108.949 E.01096
G1 X71.361 Y109.835 E.05728
G1 X72.152 Y110.647 E.05722
G1 X73.017 Y111.378 E.05717
G1 X73.903 Y111.99 E.05436
G1 X74.807 Y112.503 E.05247
G1 X75.982 Y113.021 E.06482
G1 X77.007 Y113.353 E.05439
G1 X78.12 Y113.601 E.05756
G1 X79.151 Y113.729 E.05244
G1 X80.374 Y113.765 E.06176
G1 X81.506 Y113.681 E.0573
G1 X82.622 Y113.488 E.05717
G1 X83.716 Y113.187 E.05728
G1 X84.792 Y112.772 E.05822
G1 X85.823 Y112.249 E.05836
G1 X86.747 Y111.671 E.05502
G1 X87.604 Y111.011 E.0546
G1 X88.468 Y110.2 E.05982
G1 X89.18 Y109.389 E.05448
G1 X89.844 Y108.469 E.05727
G1 X90.414 Y107.489 E.05723
G1 X90.887 Y106.459 E.05721
G1 X91.257 Y105.386 E.05729
G1 X91.52 Y104.283 E.05724
G1 X91.675 Y103.163 E.05708
G1 X91.721 Y102.087 E.05436
G1 X91.661 Y100.954 E.05727
G1 X91.49 Y99.826 E.05759
G1 X91.197 Y98.681 E.05966
G1 X90.831 Y97.665 E.05451
G1 X90.345 Y96.641 E.05722
G1 X89.762 Y95.668 E.05726
G1 X89.087 Y94.756 E.05727
G1 X88.326 Y93.915 E.05725
G1 X87.49 Y93.154 E.05707
G1 X86.589 Y92.484 E.05668
G1 X85.594 Y91.883 E.05868
G1 X84.64 Y91.422 E.05348
G1 X83.575 Y91.029 E.0573
G1 X82.478 Y90.741 E.05725
G1 X81.359 Y90.563 E.0572
G1 X80.228 Y90.493 E.0572
G1 X79.151 Y90.532 E.0544
G1 X77.968 Y90.687 E.06023
G1 X76.868 Y90.946 E.05705
G1 X75.848 Y91.291 E.05435
G1 X74.807 Y91.758 E.05759
G1 X73.782 Y92.348 E.0597
G1 X72.902 Y92.973 E.05448
G1 X72.044 Y93.715 E.05726
G1 X71.264 Y94.538 E.05724
G1 X70.584 Y95.42 E.05622
M204 S1000
G1 X70.86 Y96.098 F10800
M204 S800
G1 F1200
G1 X43.816 Y96.098 E1.36515
G1 X43.816 Y68.162 E1.41018
G1 X70.86 Y68.162 E1.36515
G1 X71.129 Y68.573 E.0248
G1 X71.799 Y69.414 E.05428
G1 X72.547 Y70.185 E.05423
G1 X73.366 Y70.88 E.05422
G1 X74.203 Y71.462 E.05146
G1 X75.107 Y71.975 E.05247
G1 X76.173 Y72.445 E.05881
G1 X77.142 Y72.762 E.05146
G1 X78.195 Y72.998 E.05447
G1 X79.312 Y73.133 E.0568
G1 X80.333 Y73.159 E.05156
G1 X81.406 Y73.082 E.0543
G1 X82.465 Y72.902 E.05422
G1 X83.502 Y72.618 E.05427
G1 X84.525 Y72.227 E.05528
G1 X85.505 Y71.731 E.05544
G1 X86.379 Y71.188 E.05194
G1 X87.191 Y70.566 E.05163
G1 X88.014 Y69.797 E.05686
G1 X88.69 Y69.031 E.05157
G1 X89.321 Y68.16 E.05429
G1 X89.864 Y67.233 E.05423
G1 X90.314 Y66.257 E.05425
G1 X90.667 Y65.241 E.05429
G1 X90.919 Y64.196 E.05426
G1 X91.069 Y63.134 E.05414
G1 X91.114 Y62.115 E.05149
G1 X91.06 Y61.041 E.05428
G1 X90.902 Y59.974 E.05445
G1 X90.624 Y58.883 E.05683
G1 X90.28 Y57.922 E.05152
G1 X89.823 Y56.949 E.05426
G1 X89.272 Y56.026 E.05426
G1 X88.634 Y55.161 E.05426
G1 X87.914 Y54.361 E.05433
G1 X87.123 Y53.637 E.05413
G1 X86.308 Y53.024 E.05148
G1 X85.392 Y52.461 E.05427
G1 X84.426 Y51.99 E.05425
G1 X83.418 Y51.615 E.05429
G1 X82.378 Y51.34 E.0543
G1 X81.318 Y51.168 E.05421
G1 X80.246 Y51.1 E.05422
G1 X79.226 Y51.134 E.05152
G1 X78.104 Y51.279 E.05711
G1 X77.059 Y51.522 E.05416
G1 X76.093 Y51.847 E.05145
M73 P1 R85
G1 X75.107 Y52.286 E.05448
G1 X74.203 Y52.799 E.05247
G1 X74.035 Y52.912 E.01022
G1 X73.296 Y53.434 E.04567
G1 X72.482 Y54.136 E.05426
G1 X71.74 Y54.914 E.05427
G1 X71.129 Y55.688 E.04978
G1 X70.86 Y56.098 E.02475
G1 X43.816 Y56.098 E1.36515
G1 X43.816 Y20.862 E1.77867
G1 X207.351 Y20.862 E8.25505
G1 X207.351 Y184.398 E8.2551
M73 P2 R85
M73 Q2 S87
G1 X43.816 Y184.398 E8.25505
G1 X43.816 Y148.162 E1.82915
G1 X70.86 Y148.162 E1.36515
G1 X71.129 Y148.573 E.0248
G1 X71.799 Y149.414 E.05428
G1 X72.547 Y150.185 E.05423
G1 X73.366 Y150.88 E.05422
G1 X74.203 Y151.462 E.05146
G1 X75.107 Y151.975 E.05247
G1 X76.173 Y152.445 E.05881
G1 X77.142 Y152.762 E.05146
G1 X78.195 Y152.998 E.05447
G1 X79.226 Y153.127 E.05245
G1 X80.333 Y153.159 E.0559
G1 X81.406 Y153.082 E.0543
G1 X82.465 Y152.902 E.05422
G1 X83.502 Y152.618 E.05427
G1 X84.506 Y152.236 E.05423
G1 X85.421 Y151.783 E.05154
G1 X86.379 Y151.188 E.05693
M73 Q2 S86
G1 X87.191 Y150.566 E.05163
G1 X88.014 Y149.797 E.05686
G1 X88.69 Y149.031 E.05157
G1 X89.321 Y148.161 E.05425
G1 X89.864 Y147.233 E.05427
G1 X90.314 Y146.257 E.05425
G1 X90.667 Y145.241 E.05429
G1 X90.919 Y144.196 E.05426
G1 X91.069 Y143.134 E.05414
G1 X91.114 Y142.115 E.05149
G1 X91.06 Y141.041 E.05428
G1 X90.919 Y140.065 E.04978
G1 X90.624 Y138.883 E.0615
G1 X90.28 Y137.921 E.05157
G1 X89.822 Y136.949 E.05424
G1 X89.272 Y136.026 E.05424
G1 X88.634 Y135.161 E.05426
G1 X87.914 Y134.361 E.05433
G1 X87.123 Y133.637 E.05413
G1 X86.269 Y133 E.05378
G1 X85.325 Y132.428 E.05572
G1 X84.426 Y131.99 E.05048
G1 X83.418 Y131.615 E.05429
G1 X82.378 Y131.34 E.0543
G1 X81.318 Y131.168 E.05421
G1 X80.246 Y131.1 E.05422
G1 X79.226 Y131.134 E.05152
G1 X78.104 Y131.279 E.05711
G1 X77.059 Y131.522 E.05416
G1 X76.093 Y131.847 E.05145
G1 X75.107 Y132.286 E.05448
G1 X74.13 Y132.845 E.05682
G1 X73.296 Y133.434 E.05154
G1 X72.482 Y134.136 E.05426
G1 X71.74 Y134.914 E.05427
G1 X71.129 Y135.688 E.04978
G1 X70.86 Y136.098 E.02475
G1 X43.816 Y136.098 E1.36515
G1 X43.816 Y108.162 E1.41018
G1 X70.86 Y108.162 E1.36515
G1 X71.129 Y108.573 E.0248
G1 X71.799 Y109.414 E.05428
G1 X72.547 Y110.185 E.05423
G1 X73.366 Y110.88 E.05422
G1 X74.203 Y111.462 E.05146
G1 X75.107 Y111.975 E.05247
G1 X76.173 Y112.445 E.05881
G1 X77.142 Y112.762 E.05146
G1 X78.195 Y112.998 E.05447
G1 X79.226 Y113.127 E.05245
G1 X80.333 Y113.159 E.0559
G1 X81.406 Y113.082 E.0543
G1 X82.465 Y112.902 E.05422
G1 X83.502 Y112.618 E.05427
G1 X84.525 Y112.227 E.05528
G1 X85.505 Y111.732 E.05542
G1 X86.379 Y111.188 E.05197
G1 X87.191 Y110.566 E.05163
G1 X88.014 Y109.797 E.05686
G1 X88.69 Y109.031 E.05157
G1 X89.321 Y108.16 E.05429
G1 X89.864 Y107.233 E.05423
G1 X90.314 Y106.257 E.05425
G1 X90.667 Y105.241 E.05429
G1 X90.919 Y104.196 E.05426
G1 X91.069 Y103.134 E.05414
G1 X91.114 Y102.115 E.05149
G1 X91.06 Y101.041 E.05428
G1 X90.902 Y99.974 E.05445
G1 X90.624 Y98.883 E.05683
G1 X90.28 Y97.922 E.05152
G1 X89.823 Y96.949 E.05426
G1 X89.272 Y96.026 E.05426
G1 X88.634 Y95.161 E.05426
G1 X87.914 Y94.361 E.05433
G1 X87.123 Y93.637 E.05413
G1 X86.269 Y93 E.05378
G1 X85.325 Y92.428 E.05572
G1 X84.426 Y91.99 E.05048
G1 X83.418 Y91.615 E.05429
G1 X82.378 Y91.34 E.0543
G1 X81.318 Y91.168 E.05421
G1 X80.246 Y91.1 E.05422
G1 X79.226 Y91.134 E.05152
G1 X78.104 Y91.279 E.05711
G1 X77.059 Y91.522 E.05416
G1 X76.093 Y91.847 E.05145
G1 X75.107 Y92.286 E.05448
G1 X74.13 Y92.845 E.05682
G1 X73.296 Y93.434 E.05154
G1 X72.482 Y94.136 E.05426
G1 X71.74 Y94.914 E.05427
G1 X71.129 Y95.688 E.04978
G1 X70.909 Y96.023 E.02023
M204 S1000
G1 X71.191 Y96.705 F10800
M204 S800
;TYPE:External perimeter
G1 F1200
G1 X43.209 Y96.705 E1.4125
G1 X43.209 Y67.555 E1.47146
G1 X71.191 Y67.555 E1.4125
G1 X71.605 Y68.196 E.03852
G1 X72.236 Y68.993 E.05131
G1 X72.941 Y69.724 E.05126
G1 X73.714 Y70.383 E.05128
G1 X74.503 Y70.934 E.04858
G1 X75.407 Y71.447 E.05247
G1 X76.364 Y71.869 E.0528
G1 X77.278 Y72.17 E.04858
G1 X78.27 Y72.396 E.05136
G1 X79.33 Y72.527 E.05391
G1 X80.293 Y72.553 E.04863
G1 X81.306 Y72.483 E.05126
G1 X82.307 Y72.315 E.05124
G1 X83.289 Y72.05 E.05134
G1 X84.258 Y71.682 E.05232
G1 X85.187 Y71.215 E.05249
G1 X86.012 Y70.705 E.04896
G1 X86.778 Y70.121 E.04862
G1 X87.561 Y69.393 E.05397
G1 X88.2 Y68.673 E.04859
G1 X88.798 Y67.852 E.05127
G1 X89.314 Y66.976 E.05132
G1 X89.741 Y66.055 E.05124
G1 X90.077 Y65.096 E.05129
G1 X90.319 Y64.109 E.0513
G1 X90.462 Y63.104 E.05124
G1 X90.508 Y62.143 E.04857
G1 X90.46 Y61.128 E.05129
G1 X90.313 Y60.121 E.05137
G1 X90.06 Y59.113 E.05246
G1 X89.73 Y58.178 E.05005
G1 X89.3 Y57.258 E.05126
G1 X88.782 Y56.384 E.05129
G1 X88.181 Y55.565 E.05128
G1 X87.503 Y54.808 E.0513
G1 X86.756 Y54.121 E.05123
G1 X85.988 Y53.54 E.04861
G1 X85.124 Y53.006 E.05127
G1 X84.212 Y52.558 E.05129
G1 X83.26 Y52.201 E.05132
G1 X82.279 Y51.939 E.05126
G1 X81.277 Y51.774 E.05126
G1 X80.263 Y51.707 E.0513
G1 X79.301 Y51.736 E.04858
G1 X78.24 Y51.87 E.05398
G1 X77.25 Y52.099 E.05129
G1 X76.337 Y52.403 E.04857
G1 X75.407 Y52.814 E.05133
G1 X74.383 Y53.409 E.05978
G1 X73.691 Y53.896 E.04271
G1 X72.92 Y54.557 E.05126
G1 X72.217 Y55.29 E.05127
G1 X71.588 Y56.088 E.05129
G1 X71.191 Y56.705 E.03704
G1 X43.209 Y56.705 E1.4125
G1 X43.209 Y20.255 E1.83995
G1 X207.959 Y20.255 E8.31639
G1 X207.959 Y185.005 E8.31639
G1 X43.209 Y185.005 E8.31639
M73 P3 R84
M73 Q3 S86
G1 X43.209 Y147.555 E1.89043
G1 X71.191 Y147.555 E1.4125
G1 X71.605 Y148.196 E.03852
G1 X72.236 Y148.993 E.05131
G1 X72.941 Y149.724 E.05126
G1 X73.714 Y150.383 E.05128
G1 X74.503 Y150.934 E.04858
G1 X75.407 Y151.447 E.05247
G1 X76.364 Y151.869 E.0528
G1 X77.278 Y152.17 E.04858
G1 X78.27 Y152.396 E.05136
G1 X79.301 Y152.524 E.05244
G1 X80.293 Y152.553 E.0501
G1 X81.306 Y152.483 E.05126
G1 X82.307 Y152.315 E.05124
G1 X83.288 Y152.05 E.05129
G1 X84.239 Y151.691 E.05131
G1 X85.102 Y151.266 E.04856
G1 X85.988 Y150.721 E.05251
G1 X86.778 Y150.121 E.05008
G1 X87.561 Y149.393 E.05397
G1 X88.2 Y148.673 E.04859
G1 X88.798 Y147.852 E.05127
G1 X89.314 Y146.976 E.05132
G1 X89.741 Y146.055 E.05124
G1 X90.077 Y145.096 E.05129
G1 X90.319 Y144.109 E.0513
G1 X90.462 Y143.104 E.05124
G1 X90.508 Y142.143 E.04857
G1 X90.46 Y141.128 E.05129
G1 X90.319 Y140.151 E.04983
G1 X90.052 Y139.086 E.05542
G1 X89.73 Y138.178 E.04863
G1 X89.3 Y137.258 E.05126
G1 X88.782 Y136.384 E.05129
G1 X88.181 Y135.565 E.05128
G1 X87.503 Y134.808 E.0513
G1 X86.756 Y134.121 E.05123
G1 X85.949 Y133.516 E.05091
G1 X85.057 Y132.973 E.05271
G1 X84.212 Y132.558 E.04752
G1 X83.26 Y132.201 E.05132
G1 X82.278 Y131.939 E.0513
G1 X81.277 Y131.774 E.05121
G1 X80.263 Y131.707 E.0513
G1 X79.301 Y131.736 E.04858
G1 X78.24 Y131.87 E.05398
G1 X77.25 Y132.099 E.05129
G1 X76.337 Y132.403 E.04857
G1 X75.407 Y132.814 E.05133
G1 X74.503 Y133.327 E.05247
G1 X73.691 Y133.896 E.05005
G1 X72.92 Y134.557 E.05126
G1 X72.217 Y135.29 E.05127
G1 X71.588 Y136.088 E.05129
G1 X71.191 Y136.705 E.03704
G1 X43.209 Y136.705 E1.4125
G1 X43.209 Y107.555 E1.47146
G1 X71.191 Y107.555 E1.4125
G1 X71.605 Y108.196 E.03852
G1 X72.236 Y108.993 E.05131
G1 X72.941 Y109.724 E.05126
G1 X73.714 Y110.383 E.05128
G1 X74.503 Y110.934 E.04858
G1 X75.407 Y111.447 E.05247
G1 X76.364 Y111.869 E.0528
G1 X77.278 Y112.17 E.04858
G1 X78.27 Y112.396 E.05136
G1 X79.301 Y112.524 E.05244
G1 X80.293 Y112.553 E.0501
G1 X81.306 Y112.483 E.05126
G1 X82.307 Y112.315 E.05124
G1 X83.288 Y112.05 E.05129
